icons/zorin-os.svg

<?xml version="1.0" encoding="UTF-8"?>
<svg width="256px" height="227px" viewBox="0 0 256 227" version="1.1" xmlns="http://www.w3.org/2000/svg" xmlns:xlink="http://www.w3.org/1999/xlink" preserveAspectRatio="xMidYMid">
    <g>
        <path d="M125.927857,1.42108547e-14 L64.159065,0.0343924229 L46.275005,31.3830859 L209.828172,31.3830859 L192.150467,0.206354538 L125.927857,1.42108547e-14 Z M24.1434809,70.2809162 L0,112.910324 L22.4926446,152.87432 L31.1767314,152.87432 L153.923289,70.2809162 L24.1434809,70.2809162 Z M223.653926,70.2809162 L100.890173,152.87432 L233.57614,152.87432 L256,113.254249 L231.822127,70.2809162 L223.653926,70.2809162 Z M44.4694028,191.77215 L63.8667294,225.958219 L130.072143,226.164573 L191.858131,226.130181 L211.461812,191.77215 L44.4694028,191.77215 Z" fill="#00AAFF"></path>
    </g>
</svg>

<svg xmlns="http://www.w3.org/2000/svg" viewBox="0 0 256 226.165">
  <path fill="#0af" d="M125.928 0 64.159.034l-17.884 31.35h163.553L192.15.205zM24.143 70.28 0 112.91l22.493 39.964h8.684l122.746-82.593zm199.51 0L100.89 152.875h132.686L256 113.254l-24.178-42.973zM44.47 191.773l19.398 34.186 66.205.207 61.786-.035 19.604-34.358z"/>
</svg>
